X:1
T:Be Thou My Vision
T:Be Thou My Vision
C:Traditional
Z:All Rights Reserved
L:1/4
Q:1/4=90
M:3/4
K:G
V:1 treble transpose=-12 nm="MusicXML Part"
%%MIDI program 25
%%MIDI control 7 102
%%MIDI control 10 64
V:1
"G" G G"C" A/G/ | E"G" D E | G G"C" A |"G" B3 |"D7" A A A | A"G" B d |"C" e"G" d B |"D" d3 | %8
"C" e e/f/ g/f/ | e"G" d B | d G"D" F |"C" E3 |"G" G B d |"C" e/d/"G" B G/B/ |"Am7" A G"D7" F | %15
"G" G3 |] %16

